HelpDesk_TicketSystem/ClientApp/src/assets/images/vector-6.svg

<svg width="317" height="312" viewBox="0 0 317 312" fill="none" xmlns="http://www.w3.org/2000/svg">
<g clip-path="url(#clip0_28_660)">
<path opacity="0.4" d="M217.37 131.994C279.567 100.063 263.002 56.4733 299.658 46.9659C334.497 37.9968 358.008 68.0435 369.016 98.0903C379.809 127.689 370.298 172.265 353.092 198.904C331.719 232.09 303.826 246.261 260.224 257.742C220.683 268.236 108.257 250.925 114.883 195.765C120.547 147.69 181.569 150.291 217.37 131.994Z" fill="white"/>
<path d="M258.728 112.082C255.522 113.159 252.85 115.221 251.14 117.733C250.285 118.899 249.751 120.155 249.11 121.41C248.424 122.964 248.027 124.598 247.934 126.254V127.151L248.255 129.034C248.468 129.931 248.896 130.828 249.43 131.635C250.285 132.801 251.247 133.788 252.423 134.685C254.795 136.419 257.603 137.682 260.637 138.381C263.671 139.08 266.854 139.196 269.949 138.721C272.268 138.365 274.482 137.634 276.468 136.568C277.964 135.671 279.14 134.774 280.101 133.429C280.956 132.263 281.491 130.738 281.811 129.482C282.239 128.227 282.346 126.971 282.452 125.805C282.559 124.819 282.452 124.011 282.239 122.935C282.019 121.474 281.357 120.084 280.315 118.899C278.902 117.417 277.205 116.144 275.292 115.132C274.544 114.145 273.476 113.697 272.193 113.338L268.132 112.082C266.636 111.724 264.926 111.454 263.323 111.454C261.72 111.454 260.117 111.634 258.728 112.082ZM263.644 120.155L266.209 120.693L266.85 121.141C267.812 121.59 268.88 122.038 269.842 122.666L271.231 123.832V123.922L271.445 124.639V126.612L270.697 128.944L270.376 129.303L270.163 129.482L268.88 130.021L267.277 130.379H264.712L261.827 129.752L260.01 128.855L258.728 127.778C258.728 127.778 258.728 127.599 258.514 127.509L258.407 127.24V125.985C258.621 125.088 258.941 124.28 259.369 123.473L260.865 121.231L261.72 120.513L262.254 120.244H262.468L263.537 120.155H263.644ZM262.041 120.334L261.506 120.513L262.041 120.334ZM258.835 127.778L259.155 128.317L258.835 127.778ZM259.262 128.047C259.262 128.227 259.583 128.317 259.69 128.496L259.262 128.047ZM147.478 189.666C147.478 190.114 147.906 190.563 148.547 190.563C149.081 190.563 149.615 190.204 149.615 189.666C149.615 189.217 149.188 188.769 148.547 188.769C148.263 188.769 147.991 188.863 147.791 189.032C147.591 189.2 147.478 189.428 147.478 189.666ZM164.577 173.88C164.577 174.149 164.791 174.418 165.218 174.418C165.539 174.418 165.859 174.239 165.859 173.88C165.859 173.611 165.646 173.342 165.218 173.342C164.898 173.342 164.577 173.611 164.577 173.88ZM179.538 165.987C179.538 166.256 179.752 166.525 180.18 166.525C180.5 166.525 180.821 166.346 180.821 165.987C180.821 165.718 180.607 165.449 180.18 165.449C179.859 165.449 179.538 165.718 179.538 165.987ZM166.714 193.792C166.714 194.061 166.928 194.33 167.356 194.33C167.676 194.33 167.997 194.15 167.997 193.792C167.997 193.522 167.783 193.253 167.356 193.253C167.035 193.253 166.714 193.522 166.714 193.792ZM145.341 164.911C145.341 165.18 145.554 165.449 145.982 165.449C146.302 165.449 146.623 165.27 146.623 164.911C146.623 164.642 146.409 164.373 145.982 164.373C145.661 164.373 145.341 164.642 145.341 164.911ZM149.615 145.806C149.599 145.939 149.617 146.074 149.671 146.2C149.724 146.326 149.81 146.441 149.922 146.535C150.035 146.63 150.172 146.702 150.322 146.747C150.472 146.791 150.632 146.807 150.791 146.793C150.949 146.807 151.11 146.791 151.26 146.747C151.41 146.702 151.547 146.63 151.659 146.535C151.772 146.441 151.858 146.326 151.911 146.2C151.964 146.074 151.983 145.939 151.966 145.806C151.983 145.673 151.964 145.539 151.911 145.413C151.858 145.287 151.772 145.172 151.659 145.077C151.547 144.983 151.41 144.911 151.26 144.866C151.11 144.821 150.949 144.806 150.791 144.82C150.15 144.82 149.615 145.268 149.615 145.806ZM88.1662 172.893C88.1662 174.149 89.2349 175.225 90.9448 175.225C92.4409 175.225 93.7234 174.328 93.7234 172.893C93.7234 171.638 92.6547 170.561 90.9448 170.561C90.2163 170.584 89.5249 170.836 89.0094 171.269C88.494 171.702 88.1927 172.282 88.1662 172.893ZM13.9997 213.703C13.9997 214.421 14.6409 215.048 15.6028 215.048C16.4577 215.048 17.2058 214.51 17.2058 213.703C17.2058 212.986 16.5646 212.358 15.6028 212.358C14.7478 212.358 13.9997 212.986 13.9997 213.703ZM5.34341 243.75C5.34341 245.006 6.4121 246.172 8.22885 246.172C9.72501 246.172 11.0074 245.275 11.0074 243.75C11.0074 242.494 9.93874 241.418 8.22885 241.418C7.48175 241.417 6.76357 241.66 6.22541 242.095C5.68726 242.53 5.37108 243.123 5.34341 243.75ZM189.798 180.966C189.798 181.235 190.118 181.504 190.546 181.504C190.867 181.504 191.187 181.235 191.187 180.966C191.187 180.607 190.867 180.338 190.546 180.338C190.118 180.338 189.798 180.607 189.798 180.966ZM214.805 179.441C214.805 179.8 215.126 180.069 215.446 180.069C215.874 180.069 216.194 179.8 216.194 179.441C216.194 179.172 215.874 178.903 215.446 178.903C215.126 178.903 214.805 179.172 214.805 179.441ZM286.086 195.944C286.086 197.469 287.475 198.814 289.613 198.814C291.429 198.814 293.032 197.648 293.032 195.944C293.032 194.33 291.643 192.984 289.613 192.984C288.677 192.984 287.78 193.296 287.119 193.851C286.458 194.406 286.086 195.159 286.086 195.944ZM258.621 159.35C258.621 159.978 259.155 160.516 259.903 160.516C260.651 160.516 261.293 160.067 261.293 159.35C261.293 158.812 260.758 158.274 259.903 158.274C259.262 158.274 258.621 158.812 258.621 159.35ZM335.566 55.3074C335.566 56.8321 336.955 58.2672 339.093 58.2672C341.016 58.2672 342.619 57.0115 342.619 55.3074C342.619 53.6929 341.23 52.3475 339.093 52.3475C338.166 52.3701 337.284 52.6892 336.629 53.2394C335.973 53.7897 335.593 54.5295 335.566 55.3074ZM262.896 61.3167C262.896 62.1239 263.644 62.8415 264.712 62.8415C265.781 62.8415 266.529 62.2136 266.529 61.3167C266.529 60.4198 265.781 59.7919 264.712 59.7919C263.644 59.7919 262.896 60.5095 262.896 61.3167ZM341.337 -37.9722C341.337 -37.434 341.871 -36.8959 342.619 -36.8959C343.26 -36.8959 343.902 -37.3443 343.902 -37.9722C343.902 -38.5103 343.367 -39.0485 342.619 -39.0485C341.871 -39.0485 341.337 -38.5103 341.337 -37.9722Z" fill="white"/>
</g>
<defs>
<clipPath id="clip0_28_660">
<rect width="317" height="312" fill="white"/>
</clipPath>
</defs>
</svg>

<svg width="317" height="312" fill="none" xmlns="http://www.w3.org/2000/svg"><g clip-path="url(#a)" fill="#fff"><path opacity=".4" d="M217.37 131.994c62.197-31.931 45.632-75.52 82.288-85.028 34.839-8.97 58.35 21.077 69.358 51.124 10.793 29.599 1.282 74.175-15.924 100.814-21.373 33.186-49.266 47.357-92.868 58.838-39.541 10.494-151.967-6.817-145.341-61.977 5.664-48.075 66.686-45.474 102.487-63.771Z"/><path d="M258.728 112.082c-3.206 1.077-5.878 3.139-7.588 5.651-.855 1.166-1.389 2.422-2.03 3.677a13.909 13.909 0 0 0-1.176 4.844v.897l.321 1.883c.213.897.641 1.794 1.175 2.601a14.656 14.656 0 0 0 2.993 3.05c2.372 1.734 5.18 2.997 8.214 3.696 3.034.699 6.217.815 9.312.34a20.322 20.322 0 0 0 6.519-2.153c1.496-.897 2.672-1.794 3.633-3.139.855-1.166 1.39-2.691 1.71-3.947.428-1.255.535-2.511.641-3.677.107-.986 0-1.794-.213-2.87-.22-1.461-.882-2.851-1.924-4.036-1.413-1.482-3.11-2.755-5.023-3.767-.748-.987-1.816-1.435-3.099-1.794l-4.061-1.256c-1.496-.358-3.206-.628-4.809-.628-1.603 0-3.206.18-4.595.628Zm4.916 8.073 2.565.538.641.448c.962.449 2.03.897 2.992 1.525l1.389 1.166v.09l.214.717v1.973l-.748 2.332-.321.359-.213.179-1.283.539-1.603.358h-2.565l-2.885-.627-1.817-.897-1.282-1.077s0-.179-.214-.269l-.107-.269v-1.255c.214-.897.534-1.705.962-2.512l1.496-2.242.855-.718.534-.269h.214l1.069-.089h.107Zm-1.603.179-.535.179.535-.179Zm-3.206 7.444.32.539-.32-.539Zm.427.269c0 .18.321.27.428.449l-.428-.449Zm-111.784 61.619c0 .448.428.897 1.069.897.534 0 1.068-.359 1.068-.897 0-.449-.427-.897-1.068-.897-.284 0-.556.094-.756.263a.831.831 0 0 0-.313.634Zm17.099-15.786c0 .269.214.538.641.538.321 0 .641-.179.641-.538 0-.269-.213-.538-.641-.538-.32 0-.641.269-.641.538Zm14.961-7.893c0 .269.214.538.642.538.32 0 .641-.179.641-.538 0-.269-.214-.538-.641-.538-.321 0-.642.269-.642.538Zm-12.824 27.805c0 .269.214.538.642.538.32 0 .641-.18.641-.538 0-.27-.214-.539-.641-.539-.321 0-.642.269-.642.539Zm-21.373-28.881c0 .269.213.538.641.538.32 0 .641-.179.641-.538 0-.269-.214-.538-.641-.538-.321 0-.641.269-.641.538Zm4.274-19.105a.764.764 0 0 0 .056.394.892.892 0 0 0 .251.335c.113.095.25.167.4.212.15.044.31.06.469.046.158.014.319-.002.469-.046a1.11 1.11 0 0 0 .399-.212.884.884 0 0 0 .252-.335.764.764 0 0 0 .055-.394.76.76 0 0 0-.055-.393.895.895 0 0 0-.252-.336 1.123 1.123 0 0 0-.399-.211 1.255 1.255 0 0 0-.469-.046c-.641 0-1.176.448-1.176.986Zm-61.449 27.087c0 1.256 1.069 2.332 2.779 2.332 1.496 0 2.778-.897 2.778-2.332 0-1.255-1.068-2.332-2.778-2.332-.729.023-1.42.275-1.936.708-.515.433-.816 1.013-.843 1.624ZM14 213.703c0 .718.64 1.345 1.603 1.345.855 0 1.603-.538 1.603-1.345 0-.717-.641-1.345-1.603-1.345-.855 0-1.603.628-1.603 1.345ZM5.343 243.75c0 1.256 1.07 2.422 2.886 2.422 1.496 0 2.778-.897 2.778-2.422 0-1.256-1.068-2.332-2.778-2.332-.747-.001-1.465.242-2.004.677-.538.435-.854 1.028-.882 1.655Zm184.455-62.784c0 .269.32.538.748.538.321 0 .641-.269.641-.538 0-.359-.32-.628-.641-.628-.428 0-.748.269-.748.628Zm25.007-1.525c0 .359.321.628.641.628.428 0 .748-.269.748-.628 0-.269-.32-.538-.748-.538-.32 0-.641.269-.641.538Zm71.281 16.503c0 1.525 1.389 2.87 3.527 2.87 1.816 0 3.419-1.166 3.419-2.87 0-1.614-1.389-2.96-3.419-2.96-.936 0-1.833.312-2.494.867-.661.555-1.033 1.308-1.033 2.093Zm-27.465-36.594c0 .628.534 1.166 1.282 1.166s1.39-.449 1.39-1.166c0-.538-.535-1.076-1.39-1.076-.641 0-1.282.538-1.282 1.076Zm76.945-104.043c0 1.525 1.389 2.96 3.527 2.96 1.923 0 3.526-1.256 3.526-2.96 0-1.614-1.389-2.96-3.526-2.96-.927.023-1.809.342-2.464.892-.656.55-1.036 1.29-1.063 2.068Zm-72.67 6.01c0 .807.748 1.525 1.816 1.525 1.069 0 1.817-.628 1.817-1.525 0-.897-.748-1.525-1.817-1.525-1.068 0-1.816.718-1.816 1.525Zm78.441-99.29c0 .539.534 1.077 1.282 1.077.641 0 1.283-.448 1.283-1.076 0-.538-.535-1.076-1.283-1.076-.748 0-1.282.538-1.282 1.076Z"/></g><defs><clipPath id="a"><path fill="#fff" d="M0 0h317v312H0z"/></clipPath></defs></svg>
